( pcb2gcode 2.5.0 )
( Software-independent Gcode )

( This file uses only one drill bit. Forced by 'onedrill' option )

G94       (Millimeters per minute feed rate.)
G21       (Units == Millimeters.)
G90       (Absolute coordinates.)
G00 S10000     (RPM spindle speed.)

G00 Z10.00000 (Retract)
T1
M5      (Spindle stop.)
G04 P1.00000
(MSG, Change tool bit to drill size 0.8mm)
M6      (Tool change.)
M0      (Temporary machine stop.)
M3      (Spindle on clockwise.)
G0 Z3.00000
G04 P1.00000

G1 F300.00000
G0 X0.00000 Y0.00000
G1 Z-1.70000
G1 Z3.00000
G0 X2.50000 Y2.50000
G1 Z-1.70000
G1 Z3.00000
G0 X10.64000 Y9.74400
G1 Z-1.70000
G1 Z3.00000
G0 X10.64000 Y7.20400
G1 Z-1.70000
G1 Z3.00000
G0 X10.64000 Y4.66400
G1 Z-1.70000
G1 Z3.00000
G0 X13.18000 Y7.20400
G1 Z-1.70000
G1 Z3.00000
G0 X13.18500 Y7.20900
G1 Z-1.70000
G1 Z3.00000
G0 X13.18000 Y9.74400
G1 Z-1.70000
G1 Z3.00000
G0 X13.18500 Y9.74900
G1 Z-1.70000
G1 Z3.00000
G0 X13.18000 Y12.28400
G1 Z-1.70000
G1 Z3.00000
G0 X13.18500 Y12.28900
G1 Z-1.70000
G1 Z3.00000
G0 X13.18000 Y14.82400
G1 Z-1.70000
G1 Z3.00000
G0 X13.18500 Y14.82900
G1 Z-1.70000
G1 Z3.00000
G0 X13.18000 Y17.36400
G1 Z-1.70000
G1 Z3.00000
G0 X13.18500 Y17.36900
G1 Z-1.70000
G1 Z3.00000
G0 X13.18000 Y19.90400
G1 Z-1.70000
G1 Z3.00000
G0 X13.18500 Y19.90900
G1 Z-1.70000
G1 Z3.00000
G0 X13.18000 Y22.44400
G1 Z-1.70000
G1 Z3.00000
G0 X13.18500 Y22.44900
G1 Z-1.70000
G1 Z3.00000
G0 X13.18000 Y24.98400
G1 Z-1.70000
G1 Z3.00000
G0 X13.18500 Y24.98900
G1 Z-1.70000
G1 Z3.00000
G0 X13.18000 Y27.52400
G1 Z-1.70000
G1 Z3.00000
G0 X13.18500 Y27.52900
G1 Z-1.70000
G1 Z3.00000
G0 X13.18000 Y30.06400
G1 Z-1.70000
G1 Z3.00000
G0 X13.18500 Y30.06900
G1 Z-1.70000
G1 Z3.00000
G0 X13.18000 Y32.60400
G1 Z-1.70000
G1 Z3.00000
G0 X13.18500 Y32.60900
G1 Z-1.70000
G1 Z3.00000
G0 X13.18000 Y35.14400
G1 Z-1.70000
G1 Z3.00000
G0 X13.18500 Y35.14900
G1 Z-1.70000
G1 Z3.00000
G0 X13.18000 Y37.68400
G1 Z-1.70000
G1 Z3.00000
G0 X13.18500 Y37.68900
G1 Z-1.70000
G1 Z3.00000
G0 X13.18000 Y40.22400
G1 Z-1.70000
G1 Z3.00000
G0 X13.18500 Y40.22900
G1 Z-1.70000
G1 Z3.00000
G0 X13.18500 Y42.76900
G1 Z-1.70000
G1 Z3.00000
G0 X13.18000 Y42.76400
G1 Z-1.70000
G1 Z3.00000
G0 X10.64000 Y40.22400
G1 Z-1.70000
G1 Z3.00000
G0 X10.64000 Y37.68400
G1 Z-1.70000
G1 Z3.00000
G0 X10.64000 Y35.14400
G1 Z-1.70000
G1 Z3.00000
G0 X10.64000 Y32.60400
G1 Z-1.70000
G1 Z3.00000
G0 X10.64000 Y30.06400
G1 Z-1.70000
G1 Z3.00000
G0 X10.64000 Y27.52400
G1 Z-1.70000
G1 Z3.00000
G0 X10.64000 Y24.98400
G1 Z-1.70000
G1 Z3.00000
G0 X10.64000 Y22.44400
G1 Z-1.70000
G1 Z3.00000
G0 X10.64000 Y19.90400
G1 Z-1.70000
G1 Z3.00000
G0 X10.64000 Y17.36400
G1 Z-1.70000
G1 Z3.00000
G0 X10.64000 Y14.82400
G1 Z-1.70000
G1 Z3.00000
G0 X10.64000 Y12.28400
G1 Z-1.70000
G1 Z3.00000
G0 X5.08000 Y17.78000
G1 Z-1.70000
G1 Z3.00000
G0 X4.29500 Y25.40000
G1 Z-1.70000
G1 Z3.00000
G0 X4.29500 Y27.40000
G1 Z-1.70000
G1 Z3.00000
G0 X4.29500 Y29.40000
G1 Z-1.70000
G1 Z3.00000
G0 X4.29500 Y31.40000
G1 Z-1.70000
G1 Z3.00000
G0 X4.31400 Y34.46600
G1 Z-1.70000
G1 Z3.00000
G0 X4.19700 Y38.10000
G1 Z-1.70000
G1 Z3.00000
G0 X4.19700 Y40.10000
G1 Z-1.70000
G1 Z3.00000
G0 X4.19700 Y42.10000
G1 Z-1.70000
G1 Z3.00000
G0 X4.19700 Y44.10000
G1 Z-1.70000
G1 Z3.00000
G0 X2.69800 Y48.16500
G1 Z-1.70000
G1 Z3.00000
G0 X0.00000 Y55.00000
G1 Z-1.70000
G1 Z3.00000
G0 X2.50000 Y52.50000
G1 Z-1.70000
G1 Z3.00000
G0 X10.64000 Y42.76400
G1 Z-1.70000
G1 Z3.00000
G0 X10.64000 Y45.30400
G1 Z-1.70000
G1 Z3.00000
G0 X10.64000 Y47.84400
G1 Z-1.70000
G1 Z3.00000
G0 X10.64000 Y50.38400
G1 Z-1.70000
G1 Z3.00000
G0 X10.64000 Y52.92400
G1 Z-1.70000
G1 Z3.00000
G0 X13.18500 Y52.92900
G1 Z-1.70000
G1 Z3.00000
G0 X13.18000 Y52.92400
G1 Z-1.70000
G1 Z3.00000
G0 X13.18500 Y50.38900
G1 Z-1.70000
G1 Z3.00000
G0 X13.18000 Y50.38400
G1 Z-1.70000
G1 Z3.00000
G0 X13.18500 Y47.84900
G1 Z-1.70000
G1 Z3.00000
G0 X13.18000 Y47.84400
G1 Z-1.70000
G1 Z3.00000
G0 X13.18000 Y45.30400
G1 Z-1.70000
G1 Z3.00000
G0 X13.18500 Y45.30900
G1 Z-1.70000
G1 Z3.00000
G0 X19.65000 Y49.76900
G1 Z-1.70000
G1 Z3.00000
G0 X19.35000 Y52.79900
G1 Z-1.70000
G1 Z3.00000
G0 X24.50000 Y49.76900
G1 Z-1.70000
G1 Z3.00000
G0 X24.80000 Y52.79900
G1 Z-1.70000
G1 Z3.00000
G0 X30.96500 Y50.38900
G1 Z-1.70000
G1 Z3.00000
G0 X30.98300 Y50.39000
G1 Z-1.70000
G1 Z3.00000
G0 X30.96500 Y52.92900
G1 Z-1.70000
G1 Z3.00000
G0 X30.98300 Y52.93000
G1 Z-1.70000
G1 Z3.00000
G0 X33.52300 Y52.93000
G1 Z-1.70000
G1 Z3.00000
G0 X37.50000 Y52.50000
G1 Z-1.70000
G1 Z3.00000
G0 X40.00000 Y55.00000
G1 Z-1.70000
G1 Z3.00000
G0 X37.20500 Y47.90500
G1 Z-1.70000
G1 Z3.00000
G0 X33.52300 Y50.39000
G1 Z-1.70000
G1 Z3.00000
G0 X33.52300 Y47.85000
G1 Z-1.70000
G1 Z3.00000
G0 X33.52300 Y45.31000
G1 Z-1.70000
G1 Z3.00000
G0 X33.52300 Y42.77000
G1 Z-1.70000
G1 Z3.00000
G0 X30.98300 Y45.31000
G1 Z-1.70000
G1 Z3.00000
G0 X30.98300 Y47.85000
G1 Z-1.70000
G1 Z3.00000
G0 X30.96500 Y47.84900
G1 Z-1.70000
G1 Z3.00000
G0 X26.84500 Y43.72900
G1 Z-1.70000
G1 Z3.00000
G0 X30.96500 Y45.30900
G1 Z-1.70000
G1 Z3.00000
G0 X30.98300 Y42.77000
G1 Z-1.70000
G1 Z3.00000
G0 X30.96500 Y42.76900
G1 Z-1.70000
G1 Z3.00000
G0 X30.98300 Y40.23000
G1 Z-1.70000
G1 Z3.00000
G0 X30.96500 Y40.22900
G1 Z-1.70000
G1 Z3.00000
G0 X30.98300 Y37.69000
G1 Z-1.70000
G1 Z3.00000
G0 X30.96500 Y37.68900
G1 Z-1.70000
G1 Z3.00000
G0 X30.98300 Y35.15000
G1 Z-1.70000
G1 Z3.00000
G0 X30.96500 Y35.14900
G1 Z-1.70000
G1 Z3.00000
G0 X30.96500 Y32.60900
G1 Z-1.70000
G1 Z3.00000
G0 X30.98300 Y32.61000
G1 Z-1.70000
G1 Z3.00000
G0 X33.52300 Y37.69000
G1 Z-1.70000
G1 Z3.00000
G0 X33.52300 Y40.23000
G1 Z-1.70000
G1 Z3.00000
G0 X37.02800 Y35.09200
G1 Z-1.70000
G1 Z3.00000
G0 X33.52300 Y35.15000
G1 Z-1.70000
G1 Z3.00000
G0 X33.52300 Y32.61000
G1 Z-1.70000
G1 Z3.00000
G0 X33.52300 Y30.07000
G1 Z-1.70000
G1 Z3.00000
G0 X30.98300 Y30.07000
G1 Z-1.70000
G1 Z3.00000
G0 X30.96500 Y30.06900
G1 Z-1.70000
G1 Z3.00000
G0 X30.96500 Y27.52900
G1 Z-1.70000
G1 Z3.00000
G0 X30.98300 Y27.53000
G1 Z-1.70000
G1 Z3.00000
G0 X33.52300 Y27.53000
G1 Z-1.70000
G1 Z3.00000
G0 X33.52300 Y24.99000
G1 Z-1.70000
G1 Z3.00000
G0 X30.98300 Y24.99000
G1 Z-1.70000
G1 Z3.00000
G0 X30.96500 Y24.98900
G1 Z-1.70000
G1 Z3.00000
G0 X30.96500 Y22.44900
G1 Z-1.70000
G1 Z3.00000
G0 X30.98300 Y22.45000
G1 Z-1.70000
G1 Z3.00000
G0 X33.52300 Y22.45000
G1 Z-1.70000
G1 Z3.00000
G0 X33.52300 Y19.91000
G1 Z-1.70000
G1 Z3.00000
G0 X30.98300 Y19.91000
G1 Z-1.70000
G1 Z3.00000
G0 X30.96500 Y19.90900
G1 Z-1.70000
G1 Z3.00000
G0 X30.96500 Y17.36900
G1 Z-1.70000
G1 Z3.00000
G0 X30.98300 Y17.37000
G1 Z-1.70000
G1 Z3.00000
G0 X33.52300 Y17.37000
G1 Z-1.70000
G1 Z3.00000
G0 X33.52300 Y14.83000
G1 Z-1.70000
G1 Z3.00000
G0 X30.98300 Y12.29000
G1 Z-1.70000
G1 Z3.00000
G0 X30.96500 Y12.28900
G1 Z-1.70000
G1 Z3.00000
G0 X30.98300 Y9.75000
G1 Z-1.70000
G1 Z3.00000
G0 X30.96500 Y9.74900
G1 Z-1.70000
G1 Z3.00000
G0 X26.80600 Y10.15400
G1 Z-1.70000
G1 Z3.00000
G0 X23.86900 Y10.20900
G1 Z-1.70000
G1 Z3.00000
G0 X30.96500 Y14.82900
G1 Z-1.70000
G1 Z3.00000
G0 X30.98300 Y14.83000
G1 Z-1.70000
G1 Z3.00000
G0 X33.52300 Y12.29000
G1 Z-1.70000
G1 Z3.00000
G0 X33.52300 Y9.75000
G1 Z-1.70000
G1 Z3.00000
G0 X37.00500 Y9.82200
G1 Z-1.70000
G1 Z3.00000
G0 X33.52300 Y7.21000
G1 Z-1.70000
G1 Z3.00000
G0 X37.50000 Y2.50000
G1 Z-1.70000
G1 Z3.00000
G0 X33.52300 Y4.67000
G1 Z-1.70000
G1 Z3.00000
G0 X30.98300 Y4.67000
G1 Z-1.70000
G1 Z3.00000
G0 X30.96500 Y4.66900
G1 Z-1.70000
G1 Z3.00000
G0 X30.98300 Y7.21000
G1 Z-1.70000
G1 Z3.00000
G0 X30.96500 Y7.20900
G1 Z-1.70000
G1 Z3.00000
G0 X27.68500 Y4.95800
G1 Z-1.70000
G1 Z3.00000
G0 X24.61500 Y4.89900
G1 Z-1.70000
G1 Z3.00000
G0 X22.07500 Y4.89900
G1 Z-1.70000
G1 Z3.00000
G0 X19.53500 Y4.89900
G1 Z-1.70000
G1 Z3.00000
G0 X20.60700 Y9.00900
G1 Z-1.70000
G1 Z3.00000
G0 X13.18500 Y4.66900
G1 Z-1.70000
G1 Z3.00000
G0 X13.18000 Y4.66400
G1 Z-1.70000
G1 Z3.00000

G00 Z10.000 ( All done -- retract )

M5      (Spindle off.)
G04 P1.000000
M9      (Coolant off.)
M2      (Program end.)

